X: 36314
T: Seamus O'Shanahan's
R: jig
M: 6/8
K: Aminor
|:EAA ABc|BG^F GB/c/d|edc BA^G|ABc BGF|
E3 ABc|BG^F GB/c/d|edc BAG|1 EA^G A=GF:|2 EA^G ABc||
|:d2 f fgf|ecA Acd|B3 dBG|AB/c/d ecA|
de/f/g agf|ecA Adc|B3 cAG|1 A3 ABc:|2 AcA BGF||

